flaticon/gastronomy/apple.svg

<svg xmlns="http://www.w3.org/2000/svg" width="32" height="32" viewBox="0 0 24 24">
    <path d="M8.914062 15.414062C8.796875 15.957031 9.140625 16.492188 9.683594 16.609375 10.222656 16.726562 10.757812 16.382812 10.875 15.839844 10.996094 15.300781 10.605469 12.359375 10.605469 12.359375 10.597656 12.355469 9.03125 14.871094 8.914062 15.414062zM14.234375 12.359375C14.234375 12.359375 13.847656 15.300781 13.964844 15.839844 14.082031 16.382812 14.617188 16.726562 15.160156 16.609375 15.703125 16.492188 16.046875 15.957031 15.925781 15.414062 15.808594 14.871094 14.246094 12.355469 14.234375 12.359375zM14.234375 12.359375"/>
    <path d="M 21.109375 17.316406 C 20.707031 17.082031 20.46875 16.660156 20.46875 16.195312 C 20.46875 15.980469 20.519531 15.773438 20.625 15.585938 C 20.863281 15.148438 20.863281 14.632812 20.625 14.199219 C 20.519531 14.007812 20.46875 13.804688 20.46875 13.585938 C 20.46875 13.375 20.515625 13.175781 20.613281 12.988281 C 20.824219 12.582031 20.832031 12.117188 20.636719 11.714844 C 20.523438 11.480469 20.46875 11.234375 20.46875 10.976562 C 20.46875 10.859375 20.480469 10.742188 20.503906 10.625 L 20.609375 10.097656 L 20.070312 10.105469 L 20.03125 10.105469 C 18.832031 10.105469 17.859375 9.132812 17.859375 7.933594 C 17.859375 7.71875 17.890625 7.507812 17.949219 7.304688 C 18.078125 6.882812 17.988281 6.425781 17.710938 6.074219 C 17.429688 5.71875 16.996094 5.519531 16.546875 5.550781 C 15.8125 5.59375 14.996094 5.726562 14.050781 5.949219 C 13.710938 6.027344 13.359375 6.070312 13.007812 6.09375 C 13.265625 4.167969 14.605469 2.710938 16.148438 2.765625 C 16.398438 2.777344 16.59375 2.585938 16.601562 2.347656 C 16.609375 2.105469 16.421875 1.90625 16.183594 1.898438 C 14.632812 1.847656 13.265625 2.898438 12.570312 4.460938 L 12.367188 3.078125 C 12.148438 1.613281 11.015625 0.484375 9.550781 0.265625 L 7.773438 0 L 8.039062 1.78125 C 8.257812 3.246094 9.386719 4.375 10.851562 4.59375 L 12.425781 4.828125 C 12.28125 5.226562 12.179688 5.648438 12.128906 6.097656 C 11.761719 6.070312 11.390625 6.027344 11.027344 5.941406 C 9.015625 5.46875 6.472656 5.109375 4.644531 6.566406 C 2.980469 7.890625 2.179688 10.5 2.199219 14.539062 C 2.214844 17.578125 4.003906 20.953125 6.550781 22.75 C 7.722656 23.578125 8.980469 24 10.21875 24 C 10.820312 24 11.417969 23.898438 11.996094 23.699219 C 12.359375 23.570312 12.746094 23.570312 13.117188 23.699219 C 15.664062 24.589844 19.285156 23.539062 21.632812 19.1875 C 21.988281 18.523438 21.757812 17.703125 21.109375 17.316406 Z M 10.980469 3.734375 C 9.894531 3.570312 9.058594 2.734375 8.898438 1.652344 L 8.804688 1.035156 L 9.421875 1.125 C 10.507812 1.285156 11.34375 2.125 11.503906 3.207031 L 11.597656 3.824219 Z M 20.867188 18.773438 C 19.351562 21.585938 16.453125 23.945312 13.402344 22.878906 C 13.125 22.78125 12.839844 22.730469 12.550781 22.730469 C 12.269531 22.730469 11.984375 22.78125 11.707031 22.875 C 9.792969 23.546875 8.117188 22.792969 7.050781 22.039062 C 4.757812 20.421875 3.085938 17.265625 3.070312 14.535156 C 3.050781 10.777344 3.742188 8.394531 5.183594 7.246094 C 6.382812 6.292969 8.121094 6.152344 10.824219 6.789062 C 11.363281 6.914062 11.910156 6.980469 12.453125 6.988281 C 12.476562 6.992188 12.492188 7 12.511719 7 C 12.519531 7 12.523438 7 12.53125 7 C 12.550781 7 12.570312 6.992188 12.59375 6.988281 C 13.15625 6.988281 13.710938 6.921875 14.25 6.796875 C 15.144531 6.582031 15.914062 6.460938 16.597656 6.417969 C 16.769531 6.410156 16.921875 6.480469 17.03125 6.613281 C 17.132812 6.742188 17.164062 6.902344 17.117188 7.054688 C 17.03125 7.335938 16.988281 7.632812 16.988281 7.933594 C 16.988281 9.464844 18.125 10.734375 19.597656 10.945312 C 19.597656 10.957031 19.597656 10.964844 19.597656 10.976562 C 19.597656 11.367188 19.683594 11.742188 19.855469 12.09375 C 19.929688 12.246094 19.925781 12.425781 19.839844 12.589844 C 19.683594 12.898438 19.597656 13.242188 19.597656 13.585938 C 19.597656 13.945312 19.691406 14.300781 19.863281 14.617188 C 19.960938 14.792969 19.960938 14.988281 19.863281 15.164062 C 19.691406 15.480469 19.597656 15.835938 19.597656 16.195312 C 19.597656 16.960938 20.007812 17.675781 20.667969 18.066406 C 20.914062 18.214844 21 18.523438 20.867188 18.773438 Z M 20.867188 18.773438"/>
</svg>

<svg xmlns="http://www.w3.org/2000/svg" width="32" height="32" viewBox="0 0 24 24">
    <path d="M8.914 15.414a1.003 1.003 0 1 0 1.96.426c.122-.54-.269-3.48-.269-3.48-.007-.005-1.574 2.511-1.69 3.054zm0 0M14.234 12.36s-.386 2.94-.27 3.48c.118.543.653.887 1.196.77a1 1 0 0 0 .766-1.196c-.117-.543-1.68-3.059-1.692-3.055zm0 0"/>
    <path d="M21.11 17.316a1.286 1.286 0 0 1-.641-1.12c0-.216.05-.423.156-.61a1.434 1.434 0 0 0 0-1.387 1.246 1.246 0 0 1-.156-.613c0-.211.047-.41.144-.598.211-.406.219-.87.024-1.273a1.674 1.674 0 0 1-.168-.738c0-.118.011-.235.035-.352l.105-.527-.539.007h-.039c-1.199 0-2.172-.972-2.172-2.171 0-.215.032-.426.09-.63.13-.421.04-.878-.238-1.23a1.367 1.367 0 0 0-1.164-.523c-.735.043-1.55.176-2.496.398-.34.078-.692.121-1.043.145.258-1.926 1.597-3.383 3.14-3.328a.43.43 0 0 0 .454-.418.433.433 0 0 0-.418-.45c-1.551-.05-2.918 1-3.614 2.563l-.203-1.383A3.327 3.327 0 0 0 9.551.266L7.773 0l.266 1.781a3.323 3.323 0 0 0 2.813 2.813l1.574.234c-.145.399-.246.82-.297 1.27a7.057 7.057 0 0 1-1.102-.157c-2.011-.472-4.554-.832-6.382.625C2.98 7.891 2.18 10.5 2.199 14.54c.016 3.04 1.805 6.414 4.352 8.211 1.172.828 2.43 1.25 3.668 1.25.601 0 1.199-.102 1.777-.3.363-.13.75-.13 1.121 0 2.547.89 6.168-.16 8.516-4.512a1.403 1.403 0 0 0-.524-1.872zM10.98 3.734a2.461 2.461 0 0 1-2.082-2.082l-.093-.617.617.09c1.086.16 1.922 1 2.082 2.082l.094.617zm9.887 15.04c-1.515 2.812-4.414 5.171-7.465 4.105a2.554 2.554 0 0 0-.851-.149c-.281 0-.567.051-.844.145-1.914.672-3.59-.082-4.656-.836-2.293-1.617-3.965-4.773-3.98-7.504-.02-3.758.671-6.14 2.113-7.289 1.199-.953 2.937-1.094 5.64-.457.54.125 1.086.191 1.63.2.023.003.038.011.058.011h.02c.019 0 .038-.008.062-.012.562 0 1.117-.066 1.656-.191.895-.215 1.664-.336 2.348-.379a.519.519 0 0 1 .433.195c.102.13.133.29.086.442a3.047 3.047 0 0 0 2.48 3.89v.032c0 .39.087.765.258 1.117a.544.544 0 0 1-.015.496 2.217 2.217 0 0 0-.242.996c0 .36.093.715.265 1.031a.547.547 0 0 1 0 .547 2.167 2.167 0 0 0-.265 1.031c0 .766.41 1.48 1.07 1.871a.532.532 0 0 1 .2.707zm0 0"/>
</svg>
